packages/kaspersky-hexa-ui-icons/src/iconsSVGs/48/Hdd.svg

<svg xmlns="http://www.w3.org/2000/svg" width="48" height="48" fill="none" viewBox="0 0 48 48"><path fill="currentColor" fill-rule="evenodd" d="M35 9h-6V7h6zm8-9v48H5V0zm-2 2H7v44h34zm-2 42H9V19l2.07-2v-4.3L9 10.65V4h30v6.57l-2.07 2.05v4.3l2.07 2zm-2-24.2-2.07-2v-6L37 9.75V6H11v3.74l2.07 2.05v6l-2.07 2V42h26zM35 29c0 6.0751-4.9249 11-11 11s-11-4.9249-11-11 4.9249-11 11-11 11 4.9249 11 11m-2 0c0-4.9706-4.0294-9-9-9s-9 4.0294-9 9 4.0294 9 9 9 9-4.0294 9-9m-4 0c0 2.7614-2.2386 5-5 5s-5-2.2386-5-5 2.2386-5 5-5 5 2.2386 5 5m-2 0c0-1.6569-1.3431-3-3-3s-3 1.3431-3 3 1.3431 3 3 3 3-1.3431 3-3" clip-rule="evenodd"/></svg>

<svg width="48" height="48" viewBox="0 0 48 48" fill="none" xmlns="http://www.w3.org/2000/svg">
<path fill-rule="evenodd" clip-rule="evenodd" d="M35 9H29V7H35V9ZM43 0V48H5V0H43ZM41 2H7V46H41V2ZM39 44H9V19L11.07 17V12.7L9 10.65V4H39V10.57L36.93 12.62V16.92L39 18.92V44ZM37 19.8L34.93 17.8V11.8L37 9.75V6H11V9.74L13.07 11.79V17.79L11 19.79V42H37V19.8ZM35 29C35 35.0751 30.0751 40 24 40C17.9249 40 13 35.0751 13 29C13 22.9249 17.9249 18 24 18C30.0751 18 35 22.9249 35 29ZM33 29C33 24.0294 28.9706 20 24 20C19.0294 20 15 24.0294 15 29C15 33.9706 19.0294 38 24 38C28.9706 38 33 33.9706 33 29ZM29 29C29 31.7614 26.7614 34 24 34C21.2386 34 19 31.7614 19 29C19 26.2386 21.2386 24 24 24C26.7614 24 29 26.2386 29 29ZM27 29C27 27.3431 25.6569 26 24 26C22.3431 26 21 27.3431 21 29C21 30.6569 22.3431 32 24 32C25.6569 32 27 30.6569 27 29Z"  fill="currentColor"/>
</svg>
